X: 7442
T: Cluain Ard
R: reel
M: 4/4
K: Dmajor
A2FD ADBD|A2FD EAAF|DAFA BAFa|egfe dedB|
A3A A2dB|A2FD EGFE|DAFA BAFa|egfe d2dB||
Ad~d2 a2fd|egfe dBAF|Ad~d2 a2fd|egfe d2dB|
~d3f a2fd|egfe dBAB|defg afdf|egfe dedB||

